X:1
T:THE CARLES WI' THE BREEKS
M:6/8
L:1/8
Q:80
C:Traditional
S:Slow Air, Middle Music
K:HP
|: {g}d/2B/2|
{g}A2{GdGe}A{gfg}f3/2e/2d|
{g}B2{GdGe}B{g}d3/2B/2{d}G|  !
{g}A2{GdGe}A{gfg}f3/2e/2d{g}e2{GdG}e{g}e2d/2B/2|
{g}A2{GdGe}A{gfg}f3/2e/2d|
{g}B/2{d}G3/2{d}B{Gdc}d3/2{g}c/2B|  !
{g}A3/2{d}B/2{e}A{gfg}f3/2e/2d|
e/2{g}A3/2e{Gdc}d2:| |:
f|  !
{g}f3/2a/2f{g}f3/2a/2f|
{gef}e3/2d/2e{gfg}f3/2d/2B|
{g}f3/2a/2f{g}f3/2a/2f|  !
{gef}e3/2f/2g{ag}a2f|
{g}f3/2a/2f{g}f3/2a/2f|
{gef}e3/2d/2e{gfg}f3/2d/2B|  !
{g}A3/2{d}B/2{e}A{gfg}f3/2e/2d|
e/2{g}A3/2e{Gdc}d2:|

